packages/symbols/svgs/duotone/handshake-duotone.svg

<svg width="24" height="24" viewBox="0 0 24 24" fill="none" xmlns="http://www.w3.org/2000/svg">
<g clip-path="url(#clip0_1456_3253)">
<path opacity="0.5" fill-rule="evenodd" clip-rule="evenodd" d="M11.636 5.77819C11.636 5.77822 11.636 5.77816 11.636 5.77819L7.48292 9.93128C7.93915 10.1987 8.46213 10.3431 9 10.3431C9.79544 10.3431 10.5583 10.0272 11.1209 9.46488C11.1209 9.46484 11.1209 9.46492 11.1209 9.46488L13.2929 7.29288C13.6834 6.90236 14.3166 6.90236 14.7071 7.29288C15.0976 7.6834 15.0976 8.31657 14.7071 8.70709L12.5351 10.8791C11.5975 11.8164 10.3258 12.3431 9 12.3431C7.67418 12.3431 6.40264 11.8166 5.465 10.8792L5.29289 10.7071C5.10536 10.5196 5 10.2652 5 9.99999C5 9.73477 5.10536 9.48042 5.29289 9.29288L10.2219 4.36388C11.7356 2.85055 13.7885 2.00031 15.929 2.00031C18.0695 2.00031 20.1223 2.85045 21.636 4.36379C22.9071 5.63504 23.7178 7.29429 23.9392 9.07834C24.1606 10.8624 23.7803 12.6693 22.8585 14.2127C22.5754 14.6869 21.9614 14.8417 21.4873 14.5585C21.0131 14.2753 20.8583 13.6614 21.1415 13.1872C21.8349 12.0261 22.121 10.6668 21.9544 9.32468C21.7879 7.98255 21.1781 6.73441 20.2219 5.77806C19.0832 4.63976 17.5391 4.00031 15.929 4.00031C14.3189 4.00031 12.7747 4.63987 11.636 5.77819Z" fill="black"/>
<path d="M8.99989 2.99126C9.00472 3.54352 8.56093 3.99513 8.00867 3.99996C6.4201 4.01386 4.90078 4.65222 3.77902 5.77712L3.07095 5.07102L3.77813 5.77801C2.63975 6.91669 2.00024 8.46088 2.00024 10.071C2.00024 11.6811 2.63972 13.2252 3.77803 14.3639L9.46403 20.0499C9.92834 20.5143 10.4796 20.8827 11.0863 21.134C11.693 21.3854 12.3432 21.5147 12.9999 21.5147C13.2046 21.5147 13.4087 21.5021 13.6111 21.4772L11.176 19.0421C10.7854 18.6516 10.7854 18.0184 11.176 17.6279C11.5665 17.2374 12.1996 17.2374 12.5902 17.6279L15.691 20.7287C15.9956 20.5342 16.279 20.3068 16.5358 20.05L16.9767 19.6091L13.793 16.4262C13.4024 16.0357 13.4023 15.4026 13.7928 15.012C14.1833 14.6214 14.8164 14.6213 15.207 15.0118L18.3737 18.1777C18.6214 17.8378 18.7573 17.4258 18.7573 17C18.7573 16.4697 18.5467 15.9612 18.1718 15.5861L14.5588 11.9731C14.1683 11.5826 14.1683 10.9494 14.5588 10.5589C14.9493 10.1684 15.5825 10.1684 15.973 10.5589L19.586 14.1719C20.3359 14.922 20.7573 15.9393 20.7573 17C20.7573 18.0607 20.336 19.0779 19.5861 19.828L19.105 20.3091L19.0982 20.316L19.0911 20.323L17.9501 21.464C17.3813 22.033 16.7192 22.499 15.9935 22.8423C15.9529 22.8646 15.9112 22.8838 15.8685 22.8999C15.8058 22.9281 15.7426 22.9554 15.679 22.9818C14.8296 23.3336 13.9193 23.5147 12.9999 23.5147C12.0806 23.5147 11.1702 23.3336 10.3209 22.9818C9.47154 22.6299 8.69983 22.1142 8.04982 21.4641L2.36382 15.7781C0.850486 14.2644 0.000244141 12.2115 0.000244141 10.071C0.000244141 7.93054 0.850393 5.87772 2.36373 4.36399C3.85636 2.86766 5.87771 2.01852 7.99118 2.00004C8.54344 1.99521 8.99506 2.43899 8.99989 2.99126Z" fill="black"/>
</g>
<defs>
<clipPath id="clip0_1456_3253">
<rect width="24" height="24" fill="white"/>
</clipPath>
</defs>
</svg>

<svg width="24" height="24" viewBox="0 0 24 24" xmlns="http://www.w3.org/2000/svg"><g clip-path="url(#a)"><path opacity=".5" fill-rule="evenodd" clip-rule="evenodd" d="M11.636 5.778 7.483 9.931a3 3 0 0 0 3.638-.466l2.172-2.172a1 1 0 1 1 1.414 1.414l-2.172 2.172a5 5 0 0 1-7.07 0l-.172-.172a1 1 0 0 1 0-1.414l4.929-4.93a8.072 8.072 0 0 1 12.636 9.85 1 1 0 1 1-1.716-1.026A6.074 6.074 0 0 0 15.928 4c-1.61 0-3.154.64-4.293 1.778Z"/><path d="M9 2.991A1 1 0 0 1 8.009 4a6.048 6.048 0 0 0-4.23 1.777l-.708-.706.707.707a6.072 6.072 0 0 0 0 8.586l5.686 5.686a5 5 0 0 0 4.147 1.427l-2.435-2.435a1 1 0 1 1 1.414-1.414l3.101 3.1a5 5 0 0 0 .845-.678l.44-.44-3.183-3.184a1 1 0 1 1 1.414-1.414l3.167 3.166a2 2 0 0 0-.202-2.592l-3.613-3.613a1 1 0 0 1 1.414-1.414l3.613 3.613a4 4 0 0 1 0 5.656l-.481.481-.007.007-.007.007-1.14 1.141a6.998 6.998 0 0 1-9.901 0l-5.686-5.686A8.072 8.072 0 0 1 7.99 2 1 1 0 0 1 9 2.991Z"/></g><defs><clipPath id="a"><path fill="#fff" d="M0 0h24v24H0z"/></clipPath></defs></svg>
